X:2188
T:Moylley gys Jee my chaarjyn 
T:My Saviour says to Satan
C:Traditional
O:Isle of Man
Z:Clague Coll.
S: Mrs Kennaugh, Ballakaighen 
N:Similar to Star of County Down and others
B:Kiaull Vannin #188 
M:4/4 
L:1/4 
Q:120 
K:D 
F|BB B/A/ F|d2 e d/e/|f3/2 d/ e/d /c/B| A3 F|BB B/A/ F|d2e d/e/|f3/2 d/ e/d/B|B3 f|
af f/e/d|ee ff/e/|dB B/A/F|A3 F|BB B/A/F| d2e d/e/|f3/2 d/ e/d/ B|B2|| 

